svg/user.svg

<svg xmlns="http://www.w3.org/2000/svg" viewBox="0 0 50 64" enable-background="new 0 0 50 64"><style type="text/css">.st0{fill:#343434;}</style><title>user</title><desc>Created with Sketch.</desc><path class="st0" d="M46.5 35s-5.2-3.4-12.8-5.1c4.5-2.8 7.4-7.8 7.4-13.5 0-8.8-7.1-16-15.9-16s-15.8 7.1-15.8 16c0 5.7 3 10.7 7.4 13.5-8.1 1.7-13.3 5.1-13.3 5.1-1.9 1.1-3.5 3.8-3.5 6v19c0 2.2 1.8 4 4 4h42c2.2 0 4-1.8 4-4v-19c0-2.2-1.5-4.9-3.5-6zm-33.1-18.6c0-6.6 5.3-12 11.9-12s11.9 5.4 11.9 12-5.3 12-11.9 12-11.9-5.4-11.9-12zm32.6 43.6h-42v-19c0-.8.8-2.1 1.4-2.4l.1-.1.1-.1c.3-.1.7-.4 1.4-.8 1.2-.6 2.6-1.3 4.1-1.9 4.4-1.7 9.3-2.7 14.4-2.7 4.6 0 9.2 1 13.5 2.7 1.5.6 2.8 1.2 4 1.9.7.4 1.1.6 1.3.8l.1.1.2.1c.6.3 1.4 1.7 1.4 2.4v19z"/></svg>

<svg xmlns="http://www.w3.org/2000/svg" viewBox="0 0 50 64"><path d="M46.5 35s-5.2-3.4-12.8-5.1c4.5-2.8 7.4-7.8 7.4-13.5 0-8.8-7.1-16-15.9-16S9.4 7.5 9.4 16.4c0 5.7 3 10.7 7.4 13.5C8.7 31.6 3.5 35 3.5 35 1.6 36.1 0 38.8 0 41v19c0 2.2 1.8 4 4 4h42c2.2 0 4-1.8 4-4V41c0-2.2-1.5-4.9-3.5-6zM13.4 16.4c0-6.6 5.3-12 11.9-12s11.9 5.4 11.9 12-5.3 12-11.9 12-11.9-5.4-11.9-12zM46 60H4V41c0-.8.8-2.1 1.4-2.4l.1-.1.1-.1c.3-.1.7-.4 1.4-.8 1.2-.6 2.6-1.3 4.1-1.9C15.5 34 20.4 33 25.5 33c4.6 0 9.2 1 13.5 2.7 1.5.6 2.8 1.2 4 1.9.7.4 1.1.6 1.3.8l.1.1.2.1c.6.3 1.4 1.7 1.4 2.4v19z" fill="#343434"/></svg>
